build/img/icon-valume.svg

<svg width="40" height="40" viewBox="0 0 40 40" fill="none" xmlns="http://www.w3.org/2000/svg">
<g opacity="0.5">
<path d="M34.0866 17.312C33.915 17.312 33.7431 17.2462 33.6123 17.1152L26.8109 10.3142C26.5492 10.0522 26.5492 9.62751 26.8109 9.36548C27.073 9.1036 27.4978 9.1036 27.7598 9.36548L34.5602 16.1661C34.8222 16.428 34.8222 16.8527 34.5602 17.1147C34.4302 17.2457 34.2602 17.3117 34.0869 17.3117" fill="#48494D"/>
<path d="M32.4738 18.9248C32.3022 18.9248 32.1304 18.8592 31.9995 18.7282L25.1988 11.9275C24.9368 11.6654 24.9368 11.2408 25.1988 10.9788C25.4609 10.7167 25.8857 10.7167 26.1477 10.9788L32.9481 17.7794C33.2101 18.0415 33.2101 18.4661 32.9481 18.7282C32.8171 18.8592 32.6454 18.9248 32.4737 18.9248" fill="#48494D"/>
<path d="M30.9287 20.4701C30.7568 20.4701 30.5852 20.4046 30.4541 20.2734L23.6537 13.4728C23.3917 13.2107 23.3917 12.7861 23.6537 12.524C23.9158 12.2622 24.3403 12.2622 24.6023 12.524L31.403 19.3247C31.665 19.5868 31.665 20.0115 31.403 20.2733C31.2716 20.4046 31.1003 20.4699 30.9286 20.4699" fill="#48494D"/>
<path d="M22.5466 18.2564C22.3748 18.2564 22.2032 18.1906 22.0723 18.0596C21.8103 17.7977 21.8103 17.3731 22.0723 17.111L24.9499 14.2333C25.212 13.9714 25.6365 13.9714 25.8985 14.2333C26.1605 14.4953 26.1605 14.92 25.8985 15.182L23.0205 18.0597C22.8898 18.1907 22.7178 18.2563 22.5465 18.2563" fill="#48494D"/>
<path d="M26.3414 22.0514C26.1695 22.0514 25.998 21.986 25.8671 21.8548C25.6051 21.5927 25.6051 21.1682 25.8671 20.9062L28.7447 18.0284C29.0067 17.7666 29.4315 17.7666 29.6936 18.0284C29.9556 18.2905 29.9556 18.7151 29.6936 18.9772L26.8157 21.8548C26.685 21.9861 26.513 22.0514 26.3413 22.0514" fill="#48494D"/>
<path d="M32.1684 13.6347C31.6505 14.1528 30.8106 14.1528 30.2927 13.6347C29.7745 13.1166 29.7745 12.277 30.2927 11.759C30.8106 11.241 31.6504 11.241 32.1684 11.759C32.6864 12.277 32.6864 13.1167 32.1684 13.6347Z" fill="#48494D"/>
<path d="M5.91291 17.3044C5.7412 17.3044 5.56948 17.2386 5.43848 17.1076C5.1766 16.8457 5.1766 16.4211 5.43848 16.1591L12.2391 9.3584C12.5013 9.09635 12.9261 9.09635 13.188 9.3584C13.4501 9.62028 13.4501 10.0449 13.188 10.307L6.38704 17.1076C6.25604 17.2383 6.08438 17.3043 5.91271 17.3043" fill="#48494D"/>
<path d="M7.52587 18.9171C7.35416 18.9171 7.18261 18.8513 7.05157 18.7203C6.78953 18.4584 6.78953 18.0336 7.05157 17.7717L13.8522 10.9711C14.1143 10.7092 14.5389 10.7092 14.801 10.9711C15.0629 11.2331 15.0629 11.6578 14.801 11.9198L8.00031 18.7205C7.86931 18.8515 7.69764 18.9171 7.52597 18.9171" fill="#48494D"/>
<path d="M9.07125 20.4627C8.8997 20.4627 8.72799 20.397 8.59695 20.2661C8.33491 20.0041 8.33491 19.5794 8.59695 19.3174L15.3976 12.5167C15.6597 12.2547 16.0843 12.2547 16.3464 12.5167C16.6084 12.7788 16.6084 13.2034 16.3464 13.4653L9.54602 20.266C9.41502 20.3966 9.24302 20.4626 9.07135 20.4626" fill="#48494D"/>
<path d="M13.6582 22.0441C13.4864 22.0441 13.3147 21.9783 13.1837 21.8475L10.3058 18.9697C10.0437 18.7078 10.0437 18.283 10.3058 18.0211C10.5682 17.7591 10.9928 17.7591 11.2549 18.0211L14.1325 20.8989C14.3945 21.1606 14.3945 21.5857 14.1325 21.8475C14.0015 21.9785 13.8298 22.0441 13.6581 22.0441" fill="#48494D"/>
<path d="M17.4535 18.2488C17.2818 18.2488 17.1101 18.1832 16.9791 18.0522L14.1012 15.1744C13.8391 14.9125 13.8391 14.4877 14.1012 14.2258C14.3635 13.9638 14.7882 13.9638 15.0502 14.2258L17.9278 17.1034C18.1899 17.3655 18.1899 17.7901 17.9278 18.0522C17.7968 18.1832 17.6248 18.2488 17.4535 18.2488" fill="#48494D"/>
<path d="M9.70761 11.7514C10.2255 12.2693 10.2255 13.109 9.70761 13.6271C9.18954 14.145 8.34987 14.145 7.83194 13.6271C7.31387 13.109 7.31387 12.2693 7.83194 11.7514C8.34961 11.2334 9.18927 11.2334 9.70761 11.7514Z" fill="#48494D"/>
<path d="M20.004 31.418C18.0839 31.418 16.1637 30.6872 14.702 29.2253C11.7787 26.3018 11.7787 21.545 14.702 18.6213C17.6257 15.6973 22.3827 15.6973 25.306 18.6213C28.2298 21.5448 28.2298 26.3017 25.306 29.2253C23.844 30.6873 21.924 31.418 20.004 31.418V31.418ZM20.004 17.77C18.4272 17.77 16.8508 18.3699 15.651 19.5703C13.2506 21.9705 13.2506 25.8763 15.651 28.2766C18.0512 30.677 21.9567 30.677 24.3573 28.2766C26.7577 25.8766 26.7577 21.9706 24.3573 19.5703C23.1573 18.37 21.58 17.77 20.004 17.77V17.77ZM24.8313 28.751H24.8326H24.8313H24.8313Z" fill="#48494D"/>
<path d="M12.0902 26.5423H10.8205C9.89441 26.5423 9.14081 25.7891 9.14081 24.8626V22.9675C9.14081 22.0414 9.89437 21.2881 10.8205 21.2881H12.0902C13.0165 21.2881 13.7697 22.0414 13.7697 22.9675V24.8626C13.7697 25.789 13.0164 26.5423 12.0901 26.5423L12.0902 26.5423ZM10.8204 22.6296C10.6373 22.6296 10.4827 22.7842 10.4827 22.9675V24.8627C10.4827 25.046 10.6373 25.2003 10.8204 25.2003H12.0901C12.2734 25.2003 12.428 25.046 12.428 24.8627V22.9675C12.428 22.7843 12.2734 22.6296 12.0901 22.6296H10.8204H10.8204Z" fill="#48494D"/>
</g>
</svg>

<svg width="40" height="40" fill="none" xmlns="http://www.w3.org/2000/svg"><g opacity=".5" fill="#48494D"><path d="M34.087 17.312a.669.669 0 01-.475-.197l-6.801-6.8a.671.671 0 01.949-.95l6.8 6.801a.67.67 0 01-.473 1.146m-1.613 1.613a.669.669 0 01-.474-.197l-6.801-6.8a.67.67 0 11.949-.95l6.8 6.801a.67.67 0 01-.474 1.146m-1.545 1.545a.668.668 0 01-.475-.197l-6.8-6.8a.67.67 0 01.948-.949l6.801 6.8a.67.67 0 01-.474 1.146"/><path d="M22.547 18.256a.67.67 0 01-.474-1.145l2.877-2.878a.67.67 0 01.948.949L23.02 18.06a.668.668 0 01-.473.196m3.794 3.795a.67.67 0 01-.474-1.145l2.878-2.878a.671.671 0 01.949.95l-2.878 2.877a.667.667 0 01-.475.196m5.827-8.416a1.326 1.326 0 11-1.875-1.875 1.326 1.326 0 011.875 1.875zM5.913 17.304a.67.67 0 01-.474-1.145l6.8-6.8a.67.67 0 01.949.948l-6.801 6.8a.67.67 0 01-.474.197m1.613 1.613a.67.67 0 01-.474-1.145l6.8-6.8a.671.671 0 01.949.948l-6.8 6.8a.669.669 0 01-.475.197m1.545 1.546a.67.67 0 01-.474-1.146l6.8-6.8a.67.67 0 01.95.948l-6.801 6.801a.671.671 0 01-.475.197"/><path d="M13.658 22.044a.67.67 0 01-.474-.197l-2.878-2.877a.67.67 0 11.949-.949l2.877 2.878a.67.67 0 01-.474 1.145m3.795-3.795a.669.669 0 01-.474-.197l-2.878-2.878a.67.67 0 11.95-.948l2.877 2.877a.67.67 0 01-.475 1.146m-7.745-6.498a1.326 1.326 0 11-1.876 1.876 1.326 1.326 0 011.876-1.876z"/><path d="M20.004 31.418a7.47 7.47 0 01-5.302-2.193c-2.923-2.923-2.923-7.68 0-10.604 2.924-2.924 7.68-2.924 10.604 0 2.924 2.924 2.924 7.68 0 10.604a7.475 7.475 0 01-5.302 2.193zm0-13.648c-1.577 0-3.153.6-4.353 1.8a6.163 6.163 0 000 8.707c2.4 2.4 6.306 2.4 8.706 0 2.4-2.4 2.4-6.306 0-8.707a6.138 6.138 0 00-4.353-1.8zm4.827 10.981h.002-.002z"/><path d="M12.09 26.542h-1.27c-.926 0-1.68-.753-1.68-1.68v-1.894c0-.927.754-1.68 1.68-1.68h1.27c.927 0 1.68.753 1.68 1.68v1.895c0 .926-.754 1.68-1.68 1.68zm-1.27-3.912a.342.342 0 00-.337.338v1.895c0 .183.154.337.337.337h1.27a.342.342 0 00.338-.337v-1.895a.342.342 0 00-.338-.338h-1.27z"/></g></svg>
